X:5986
T:Gan Ainm
R:Reel
S:
H:
N:
D:Paddy Carty & Conor Tully(Session Tape) 
Z:Adrian Scahill
M:4/4
L:1/8
K:C
c3G ECEG|c2Ac Bcd2|c3G EFGc|Addc BGAB|\
c3G ECEG|c2Ac BcDB|cAGF EFGE|Addc BGAB||\
c2gc acgc|c2gc BcdB|c2gc acgb|aged cGAB|\
c2gc acgc|c2gc Bcd2|cBcd egg2|aged cAGB||


